src/cui/assets/icons/trash.svg

<svg fill="none" height="24" viewBox="0 0 24 24" width="24" xmlns="http://www.w3.org/2000/svg"><mask height="20" maskUnits="userSpaceOnUse" width="20" x="2" y="2"><path clip-rule="evenodd" d="m20 6h1c.55 0 1 .45 1 1s-.45 1-1 1h-1v11c0 1.654-1.346 3-3 3h-10c-1.654 0-3-1.346-3-3v-11h-1c-.55 0-1-.45-1-1s.45-1 1-1h1 4v-1.672c0-1.284 1.121-2.328 2.5-2.328h3c1.379 0 2.5 1.044 2.5 2.328v1.672zm-10-1.672c0-.155.214-.328.5-.328h3c.286 0 .5.173.5.328v1.672h-4zm8 14.672c0 .551-.448 1-1 1h-10c-.552 0-1-.449-1-1v-11h12z" fill="#fff" fill-rule="evenodd"/></mask><path clip-rule="evenodd" d="m20 6h1c.55 0 1 .45 1 1s-.45 1-1 1h-1v11c0 1.654-1.346 3-3 3h-10c-1.654 0-3-1.346-3-3v-11h-1c-.55 0-1-.45-1-1s.45-1 1-1h1 4v-1.672c0-1.284 1.121-2.328 2.5-2.328h3c1.379 0 2.5 1.044 2.5 2.328v1.672zm-10-1.672c0-.155.214-.328.5-.328h3c.286 0 .5.173.5.328v1.672h-4zm8 14.672c0 .551-.448 1-1 1h-10c-.552 0-1-.449-1-1v-11h12z" fill="#231f20" fill-rule="evenodd"/></svg>

<svg width="24" height="24" viewBox="0 0 24 24" fill="none" xmlns="http://www.w3.org/2000/svg">
<path fill-rule="evenodd" clip-rule="evenodd" d="M20 6H21C21.55 6 22 6.45 22 7C22 7.55 21.55 8 21 8H20V19C20 20.654 18.654 22 17 22H7C5.346 22 4 20.654 4 19V8H3C2.45 8 2 7.55 2 7C2 6.45 2.45 6 3 6H4H8V4.328C8 3.044 9.121 2 10.5 2H13.5C14.879 2 16 3.044 16 4.328V6H20ZM10 4.328C10 4.173 10.214 4 10.5 4H13.5C13.786 4 14 4.173 14 4.328V6H10V4.328ZM18 19C18 19.551 17.552 20 17 20H7C6.448 20 6 19.551 6 19V8H18V19Z" fill="#231F20"/>
<mask id="mask0_696_485" style="mask-type:alpha" maskUnits="userSpaceOnUse" x="2" y="2" width="20" height="20">
<path fill-rule="evenodd" clip-rule="evenodd" d="M20 6H21C21.55 6 22 6.45 22 7C22 7.55 21.55 8 21 8H20V19C20 20.654 18.654 22 17 22H7C5.346 22 4 20.654 4 19V8H3C2.45 8 2 7.55 2 7C2 6.45 2.45 6 3 6H4H8V4.328C8 3.044 9.121 2 10.5 2H13.5C14.879 2 16 3.044 16 4.328V6H20ZM10 4.328C10 4.173 10.214 4 10.5 4H13.5C13.786 4 14 4.173 14 4.328V6H10V4.328ZM18 19C18 19.551 17.552 20 17 20H7C6.448 20 6 19.551 6 19V8H18V19Z" fill="white"/>
</mask>
<g mask="url(#mask0_696_485)">
</g>
</svg>
